svg/24/ar.svg

<svg width="24" height="24" viewBox="0 0 24 24" fill="currentColor" xmlns="http://www.w3.org/2000/svg"><path d="M2.75 2C2.33579 2 2 2.33579 2 2.75V5.25C2 5.66421 2.33579 6 2.75 6C3.16421 6 3.5 5.66421 3.5 5.25V3.5H5.25C5.66421 3.5 6 3.16421 6 2.75C6 2.33579 5.66421 2 5.25 2H2.75Z"/><path d="M2 18.75V21.25C2 21.4489 2.07902 21.6397 2.21967 21.7803C2.36032 21.921 2.55109 22 2.75 22H5.25C5.66421 22 6 21.6642 6 21.25C6 20.8358 5.66421 20.5 5.25 20.5H3.5L3.5 18.75C3.5 18.3358 3.16421 18 2.75 18C2.33579 18 2 18.3358 2 18.75Z"/><path d="M21.25 22H18.75C18.3358 22 18 21.6642 18 21.25C18 20.8358 18.3358 20.5 18.75 20.5H20.5V18.75C20.5 18.3358 20.8358 18 21.25 18C21.6642 18 22 18.3358 22 18.75V21.25C22 21.4489 21.921 21.6397 21.7803 21.7803C21.6397 21.921 21.4489 22 21.25 22Z"/><path d="M22 5.25V2.75C22 2.33579 21.6642 2 21.25 2H18.75C18.3358 2 18 2.33579 18 2.75C18 3.16421 18.3358 3.5 18.75 3.5L20.5 3.5V5.25C20.5 5.66421 20.8358 6 21.25 6C21.6642 6 22 5.66421 22 5.25Z"/><path fill-rule="evenodd" clip-rule="evenodd" d="M13 4.49446C12.3812 4.1372 11.6188 4.1372 11 4.49446L6 7.38122C5.3812 7.73848 5 8.39873 5 9.11327V14.8868C5 15.6013 5.3812 16.2616 6 16.6188L11 19.5056C11.6188 19.8628 12.3812 19.8628 13 19.5056L18 16.6188C18.6188 16.2616 19 15.6013 19 14.8868V9.11327C19 8.39874 18.6188 7.73848 18 7.38122L13 4.49446ZM16.75 8.39157L12.25 5.7935C12.0953 5.70419 11.9047 5.70419 11.75 5.7935L7.25002 8.39157L12 11.134L16.75 8.39157ZM17.5 9.69061L12.75 12.433L12.75 17.9179L17.25 15.3198C17.4047 15.2305 17.5 15.0654 17.5 14.8868V9.69061ZM11.25 17.9179L11.25 12.433L6.5 9.69059V14.8868C6.5 15.0654 6.5953 15.2305 6.75 15.3198L11.25 17.9179Z"/></svg>

<svg xmlns="http://www.w3.org/2000/svg" width="24" height="24" fill="currentColor" viewBox="0 0 24 24">
  <path d="M2.75 2a.75.75 0 0 0-.75.75v2.5a.75.75 0 0 0 1.5 0V3.5h1.75a.75.75 0 0 0 0-1.5h-2.5ZM2 18.75v2.5a.75.75 0 0 0 .75.75h2.5a.75.75 0 0 0 0-1.5H3.5v-1.75a.75.75 0 0 0-1.5 0ZM21.25 22h-2.5a.75.75 0 0 1 0-1.5h1.75v-1.75a.75.75 0 0 1 1.5 0v2.5a.75.75 0 0 1-.75.75ZM22 5.25v-2.5a.75.75 0 0 0-.75-.75h-2.5a.75.75 0 0 0 0 1.5h1.75v1.75a.75.75 0 0 0 1.5 0Z"/>
  <path fill-rule="evenodd" d="M13 4.494a2 2 0 0 0-2 0L6 7.381a2 2 0 0 0-1 1.732v5.774a2 2 0 0 0 1 1.732l5 2.887a2 2 0 0 0 2 0l5-2.887a2 2 0 0 0 1-1.732V9.113a2 2 0 0 0-1-1.732l-5-2.887Zm3.75 3.898-4.5-2.598a.5.5 0 0 0-.5 0l-4.5 2.598L12 11.134l4.75-2.742Zm.75 1.299-4.75 2.742v5.485l4.5-2.598a.5.5 0 0 0 .25-.433V9.69Zm-6.25 8.227v-5.485L6.5 9.691v5.196a.5.5 0 0 0 .25.433l4.5 2.598Z" clip-rule="evenodd"/>
</svg>
